!! Stephen C. Foster, "Hard Times Comes Again No More"
!! from 'Stephen Foster Song Book' Dover Publications (New York) pp. 46-48
!! NOTE:  Leading and trailing bars of rest have been omitted.
**kern
*M4/4
*MM96
*E-:
8e-
8f
=1
4g
8g
8g
8g
4b-
8g
=2
8f
8e-
8e-
8f
4g
8.cc
16b-
=3
4b-
4g
8g
8e-
8.f
16f
=4
2e-
4r
8e-
8f
=5
4g
8g
8g
8g
4b-
8g
=6
8f
8e-
8e-
8f
4g
4cc;
=7
4b-
4g
8g
8e-
8.f
16f
=8
2e-
4r
8g
8a-
=9
4b-
8r
8b-
4b-
8an
8b-
=10
2cc
4b-
4r
=11
4ee-
4b-
4cc
4b-
=12
8g
8g
8.f
16e-
4f;
8e-
8f
=13
4g
8g
8g
8g
4b-
8g
=14
8.f
16e-
8e-
8f
4g
4cc;
=15
4b-
4g
8g
8e-
8.f
16f
=16
2.e-
8e-
8f
=17
4g
8g
8g
8g
4b-
8g
=18
8f
8e-
8e-
8f
4g
8.cc
16b-
=19
4b-
4g
8g
8e-
8.f
16f
=20
2e-
4r
8e-
8f
=21
4g
8g
8g
8g
4b-
8g
=22
8f
8e-
8e-
8f
4g
4cc;
=23
4b-
4g
8g
8e-
8.f
16f
=24
2e-
4r
8g
8a-
=25
4b-
8r
8b-
4b-
8an
8b-
=26
2cc
4b-
4r
=27
4ee-
4b-
4cc
4b-
=28
8g
8g
8.f
16e-
4f;
8e-
8f
=29
4g
8g
8g
8g
4b-
8g
=30
8.f
16e-
8e-
8f
4g
4cc;
=31
4b-
4g
8g
8e-
8.f
16f
=32
2.e-
4r
==
*-
